resources/dark/today.svg

<svg fill="none" height="16" viewBox="0 0 16 16" width="16" xmlns="http://www.w3.org/2000/svg" xmlns:xlink="http://www.w3.org/1999/xlink"><linearGradient id="a" gradientUnits="userSpaceOnUse" x1="8" x2="8" y1="2" y2="14"><stop offset="0" stop-color="#6d78f5"/><stop offset="1" stop-color="#926df7"/></linearGradient><path d="m12.7143 3.5h-1.2857v-1.21875c0-.15469-.1447-.28125-.3215-.28125h-1.0714c-.17677 0-.32141.12656-.32141.28125v1.21875h-3.42858v-1.21875c0-.15469-.14464-.28125-.32142-.28125h-1.07143c-.17679 0-.32143.12656-.32143.28125v1.21875h-1.28572c-.70982 0-1.28571.50391-1.28571 1.125v8.25c0 .6211.57589 1.125 1.28571 1.125h9.42859c.7098 0 1.2857-.5039 1.2857-1.125v-8.25c0-.62109-.5759-1.125-1.2857-1.125zm-.1607 9.375h-9.10717c-.08839 0-.16072-.0633-.16072-.1406v-6.9844h9.42859v6.9844c0 .0773-.0723.1406-.1607.1406z" fill="url(#a)"/></svg>

<svg width="16" height="16" viewBox="0 0 16 16" fill="none" xmlns="http://www.w3.org/2000/svg">
<path d="M12.7143 3.5H11.4286V2.28125C11.4286 2.12656 11.2839 2 11.1071 2H10.0357C9.85893 2 9.71429 2.12656 9.71429 2.28125V3.5H6.28571V2.28125C6.28571 2.12656 6.14107 2 5.96429 2H4.89286C4.71607 2 4.57143 2.12656 4.57143 2.28125V3.5H3.28571C2.57589 3.5 2 4.00391 2 4.625V12.875C2 13.4961 2.57589 14 3.28571 14H12.7143C13.4241 14 14 13.4961 14 12.875V4.625C14 4.00391 13.4241 3.5 12.7143 3.5ZM12.5536 12.875H3.44643C3.35804 12.875 3.28571 12.8117 3.28571 12.7344V5.75H12.7143V12.7344C12.7143 12.8117 12.642 12.875 12.5536 12.875Z" fill="url(#paint0_linear)"/>
<defs>
<linearGradient id="paint0_linear" x1="8" y1="2" x2="8" y2="14" gradientUnits="userSpaceOnUse">
<stop stop-color="#6D78F5"/>
<stop offset="1" stop-color="#926DF7"/>
</linearGradient>
</defs>
</svg>
